X:737
M:C
L:1/8
K:E Minor
e|B<E B>A B<EB<e|d<D B/A/G/F/ d<D B/A/G/F/|B<E B>A B<E B>e|
d<B d>F E/E/E E:|
|:B|e>Be>g B>eg>e|d>fB>d F<D A>F|1 e<Be>g B>eg>e|d<B d>F E/E/E ~E2:|2

